flaticon/transport/pressure.svg

<svg xmlns="http://www.w3.org/2000/svg" width="32" height="32" viewBox="0 0 24 24">
    <path d="M 8 10 C 5.121094 10 2.800781 12.320312 2.800781 15.199219 C 2.800781 18.078125 5.121094 20.398438 8 20.398438 C 10.878906 20.398438 13.199219 18.078125 13.199219 15.199219 C 13.199219 12.320312 10.878906 10 8 10 Z M 12.382812 14.800781 L 9.550781 14.800781 C 9.511719 14.652344 9.453125 14.515625 9.378906 14.390625 L 11.386719 12.382812 C 11.941406 13.046875 12.300781 13.882812 12.382812 14.800781 Z M 8 16 C 7.558594 16 7.199219 15.640625 7.199219 15.199219 C 7.199219 14.761719 7.558594 14.398438 8 14.398438 C 8.441406 14.398438 8.800781 14.761719 8.800781 15.199219 C 8.800781 15.640625 8.441406 16 8 16 Z M 8.8125 13.824219 C 8.683594 13.746094 8.546875 13.6875 8.398438 13.652344 L 8.398438 10.816406 C 9.320312 10.898438 10.152344 11.261719 10.820312 11.816406 Z M 7.601562 13.652344 C 7.453125 13.6875 7.316406 13.746094 7.191406 13.820312 L 5.183594 11.8125 C 5.847656 11.261719 6.683594 10.898438 7.601562 10.816406 Z M 7.1875 16.578125 C 7.316406 16.652344 7.453125 16.710938 7.601562 16.75 L 7.601562 19.582031 C 6.679688 19.5 5.847656 19.140625 5.179688 18.582031 Z M 8.398438 16.75 C 8.546875 16.710938 8.683594 16.652344 8.808594 16.578125 L 10.816406 18.585938 C 10.152344 19.140625 9.316406 19.5 8.398438 19.582031 Z M 4.617188 12.378906 L 6.625 14.386719 C 6.546875 14.515625 6.488281 14.652344 6.449219 14.800781 L 3.617188 14.800781 C 3.699219 13.882812 4.0625 13.046875 4.617188 12.378906 Z M 3.617188 15.601562 L 6.449219 15.601562 C 6.488281 15.746094 6.546875 15.882812 6.621094 16.011719 L 4.613281 18.019531 C 4.058594 17.351562 3.699219 16.515625 3.617188 15.601562 Z M 11.382812 18.019531 L 9.375 16.011719 C 9.453125 15.886719 9.511719 15.746094 9.550781 15.601562 L 12.382812 15.601562 C 12.300781 16.519531 11.9375 17.351562 11.382812 18.019531 Z M 11.382812 18.019531"/>
    <path d="M 24 4.800781 C 24 2.601562 22.199219 0.800781 20 0.800781 C 17.800781 0.800781 16 2.601562 16 4.800781 C 16 6.863281 17.585938 8.578125 19.601562 8.78125 L 19.601562 13.601562 C 19.601562 16.351562 17.589844 18.652344 14.96875 19.117188 C 15.625 17.957031 16 16.621094 16 15.199219 C 16 10.800781 12.398438 7.199219 8 7.199219 C 3.601562 7.199219 0 10.800781 0 15.199219 C 0 19.601562 3.601562 23.199219 8 23.199219 C 10.609375 23.199219 12.9375 21.933594 14.398438 19.988281 C 17.734375 19.78125 20.398438 16.984375 20.398438 13.601562 L 20.398438 8.78125 C 22.414062 8.578125 24 6.863281 24 4.800781 Z M 8 22.398438 C 4.039062 22.398438 0.800781 19.160156 0.800781 15.199219 C 0.800781 11.238281 4.039062 8 8 8 C 11.960938 8 15.199219 11.238281 15.199219 15.199219 C 15.199219 19.160156 11.960938 22.398438 8 22.398438 Z M 20.398438 7.972656 L 20.398438 7.199219 C 20.398438 6.960938 20.238281 6.800781 20 6.800781 C 19.761719 6.800781 19.601562 6.960938 19.601562 7.199219 L 19.601562 7.972656 C 18.160156 7.792969 17.007812 6.640625 16.824219 5.199219 L 17.601562 5.199219 C 17.839844 5.199219 18 5.039062 18 4.800781 C 18 4.558594 17.839844 4.398438 17.601562 4.398438 L 16.824219 4.398438 C 17.007812 2.957031 18.160156 1.808594 19.601562 1.625 L 19.601562 2.398438 C 19.601562 2.640625 19.761719 2.800781 20 2.800781 C 20.238281 2.800781 20.398438 2.640625 20.398438 2.398438 L 20.398438 1.625 C 21.839844 1.808594 22.992188 2.957031 23.175781 4.398438 L 22.398438 4.398438 C 22.160156 4.398438 22 4.558594 22 4.800781 C 22 5.039062 22.160156 5.199219 22.398438 5.199219 L 23.175781 5.199219 C 22.992188 6.640625 21.839844 7.792969 20.398438 7.972656 Z M 20.398438 7.972656"/>
    <path d="M 21.878906 2.921875 C 21.71875 2.761719 21.480469 2.761719 21.320312 2.921875 L 20.527344 3.714844 C 20.367188 3.640625 20.191406 3.601562 20 3.601562 C 19.320312 3.601562 18.800781 4.121094 18.800781 4.800781 C 18.800781 5.480469 19.320312 6 20 6 C 20.679688 6 21.199219 5.480469 21.199219 4.800781 C 21.199219 4.609375 21.160156 4.433594 21.085938 4.273438 L 21.878906 3.480469 C 22.039062 3.320312 22.039062 3.078125 21.878906 2.921875 Z M 20 5.199219 C 19.761719 5.199219 19.601562 5.039062 19.601562 4.800781 C 19.601562 4.558594 19.761719 4.398438 20 4.398438 C 20.238281 4.398438 20.398438 4.558594 20.398438 4.800781 C 20.398438 5.039062 20.238281 5.199219 20 5.199219 Z M 20 5.199219"/>
</svg>

<svg xmlns="http://www.w3.org/2000/svg" width="32" height="32" viewBox="0 0 24 24">
    <path d="M8 10a5.19 5.19 0 0 0-5.2 5.2A5.19 5.19 0 0 0 8 20.397a5.19 5.19 0 0 0 5.2-5.199A5.19 5.19 0 0 0 8 10zm4.383 4.8H9.55a1.597 1.597 0 0 0-.172-.41l2.008-2.007c.554.664.914 1.5.996 2.418zM8 16c-.441 0-.8-.36-.8-.8 0-.438.359-.802.8-.802A.802.802 0 0 1 8 16zm.813-2.176a1.429 1.429 0 0 0-.415-.172v-2.836a4.386 4.386 0 0 1 2.422 1zm-1.211-.172a1.462 1.462 0 0 0-.41.168l-2.008-2.008c.664-.55 1.5-.914 2.418-.996zm-.415 2.926c.13.074.266.133.415.172v2.832a4.358 4.358 0 0 1-2.422-1zm1.211.172c.149-.04.286-.098.41-.172l2.008 2.008a4.37 4.37 0 0 1-2.418.996zm-3.78-4.371l2.007 2.008a1.556 1.556 0 0 0-.176.414H3.617a4.398 4.398 0 0 1 1-2.422zm-1 3.223h2.831c.04.144.098.28.172.41L4.613 18.02a4.394 4.394 0 0 1-.996-2.418zm7.765 2.418l-2.008-2.008a1.53 1.53 0 0 0 .176-.41h2.832a4.386 4.386 0 0 1-1 2.418zm0 0"/>
    <path d="M24 4.8c0-2.198-1.8-4-4-4s-4 1.802-4 4a4.017 4.017 0 0 0 3.602 3.981v4.82c0 2.75-2.012 5.051-4.633 5.516A7.932 7.932 0 0 0 16 15.2c0-4.398-3.602-8-8-8s-8 3.602-8 8c0 4.403 3.602 8 8 8a8 8 0 0 0 6.398-3.21c3.336-.208 6-3.005 6-6.387v-4.82A4.017 4.017 0 0 0 24 4.8zM8 22.399C4.04 22.398.8 19.16.8 15.2.8 11.24 4.04 8 8 8s7.2 3.238 7.2 7.2c0 3.96-3.24 7.198-7.2 7.198zM20.398 7.973v-.774c0-.238-.16-.398-.398-.398-.238 0-.398.16-.398.398v.774a3.216 3.216 0 0 1-2.778-2.774h.778c.238 0 .398-.16.398-.398 0-.242-.16-.403-.398-.403h-.778a3.22 3.22 0 0 1 2.778-2.773v.773c0 .243.16.403.398.403.238 0 .398-.16.398-.403v-.773a3.22 3.22 0 0 1 2.778 2.773h-.778c-.238 0-.398.16-.398.403 0 .238.16.398.398.398h.778a3.216 3.216 0 0 1-2.778 2.774zm0 0"/>
    <path d="M21.879 2.922a.385.385 0 0 0-.559 0l-.793.793A1.24 1.24 0 0 0 20 3.602c-.68 0-1.2.52-1.2 1.199C18.8 5.48 19.32 6 20 6c.68 0 1.2-.52 1.2-1.2 0-.19-.04-.366-.114-.527l.793-.793a.385.385 0 0 0 0-.558zM20 5.199c-.238 0-.398-.16-.398-.398 0-.242.16-.403.398-.403.238 0 .398.16.398.403 0 .238-.16.398-.398.398zm0 0"/>
</svg>
